X: 422
T: Bonaparte's Retreat
B: jims roots
M:4/4
L:1/8
Q: 1/4=100
K:Dmaj
V:1 
"G"[G2G,]G2 G2 AB | "D"d2de (f/e/d)ef | dfdB ABAG | (F2D2) (3FGF D2 |[1 D4A2B2 :|[2 (D4 D2)DE ||
"D"(3FED DF A2DE | (3FED DF A2DF | EDED E2EF | "A"G2F2(3EFE DE |
"D"(3FED DF A2DE | (3FED DF A2DF | EDEF  G2 F2 | "A"E2D2 JFFFE | "D"D2DE D2B,2 | A,2 de ||
"D"(3fed dfa2 de | (3fed dfa2 df | eded e2ef | "A"g2f2 (3efe de |
"D"(3fed dfa2 de | (3fed dfa2 df | edef g2f2 | "A"e2d2 Jf3e | "D"d3e d2z2 | AB ||
V:A2D 
V:B2D 
 |: "D"[DB]ddd de(f/e/d) | [d2D]D2 D2AB | d2dd dedB | A2A2 A2AB | "C"[=c2E]d^d =dcA2 |
% abcbook-tune_id 6298c24506d71a9cfb89af93


% abcbook-boost 0
% abcbook-tablature 
% abcbook-transpose 
% abcbook-lastupdated 1654178373462
% abcbook-soundfonts 
% abcbook-repeats 1


